dist/img/catalog/discount_decor_5.svg

<svg width="165" height="164" viewBox="0 0 165 164" fill="none" xmlns="http://www.w3.org/2000/svg">
<path d="M40.0984 88.3504C30.4245 88.3504 22.698 85.1205 16.9188 78.6607C11.1396 72.2008 8.25 63.4252 8.25 52.3338C8.25 41.3643 11.1396 32.6496 16.9188 26.1897C22.698 19.7299 30.4245 16.5 40.0984 16.5C49.7722 16.5 57.4987 19.7299 63.2779 26.1897C69.0571 32.6496 71.9467 41.3643 71.9467 52.3338C71.9467 63.4252 69.0571 72.2008 63.2779 78.6607C57.4987 85.1205 49.7722 88.3504 40.0984 88.3504ZM114.914 17.5969H134.324L50.2747 147.403H30.8642L114.914 17.5969ZM40.0984 72.6274C48.5159 72.6274 52.7246 65.8629 52.7246 52.3338C52.7246 38.9266 48.5159 32.223 40.0984 32.223C31.6808 32.223 27.4721 38.9266 27.4721 52.3338C27.4721 65.8629 31.6808 72.6274 40.0984 72.6274ZM124.902 148.5C115.102 148.5 107.313 145.27 101.534 138.81C95.7544 132.229 92.8648 123.453 92.8648 112.483C92.8648 101.514 95.7544 92.7992 101.534 86.3393C107.438 79.8795 115.228 76.6496 124.902 76.6496C134.576 76.6496 142.302 79.8795 148.081 86.3393C153.86 92.7992 156.75 101.514 156.75 112.483C156.75 123.575 153.86 132.35 148.081 138.81C142.302 145.27 134.576 148.5 124.902 148.5ZM124.902 132.777C133.319 132.777 137.528 126.012 137.528 112.483C137.528 99.0762 133.319 92.3726 124.902 92.3726C116.359 92.3726 112.087 99.0762 112.087 112.483C112.087 126.012 116.359 132.777 124.902 132.777Z" fill="#EDF0F6"/>
</svg>

<svg width="165" height="164" viewBox="0 0 165 164" fill="none" xmlns="http://www.w3.org/2000/svg"><path d="M40.098 88.35c-9.674 0-17.4-3.23-23.18-9.69C11.14 72.2 8.25 63.426 8.25 52.335c0-10.97 2.89-19.684 8.669-26.144 5.779-6.46 13.505-9.69 23.18-9.69 9.673 0 17.4 3.23 23.179 9.69 5.78 6.46 8.669 15.174 8.669 26.144 0 11.091-2.89 19.867-8.67 26.327-5.778 6.46-13.505 9.69-23.179 9.69zm74.816-70.753h19.41l-84.05 129.806h-19.41l84.05-129.806zm-74.816 55.03c8.418 0 12.627-6.764 12.627-20.293 0-13.407-4.21-20.111-12.627-20.111-8.417 0-12.626 6.704-12.626 20.11 0 13.53 4.209 20.294 12.626 20.294zm84.804 75.873c-9.8 0-17.589-3.23-23.368-9.69-5.78-6.581-8.67-15.357-8.67-26.327 0-10.969 2.89-19.684 8.67-26.144 5.904-6.46 13.694-9.69 23.368-9.69 9.674 0 17.4 3.23 23.179 9.69 5.779 6.46 8.669 15.175 8.669 26.144 0 11.092-2.89 19.867-8.669 26.327-5.779 6.46-13.505 9.69-23.179 9.69zm0-15.723c8.417 0 12.626-6.765 12.626-20.294 0-13.407-4.209-20.11-12.626-20.11-8.543 0-12.815 6.703-12.815 20.11 0 13.529 4.272 20.294 12.815 20.294z" fill="#EDF0F6"/></svg>
